X: 20941
T: Joy Of It, The
R: waltz
M: 3/4
K: Dmajor
|:(dc) (cA) A(F|GF) (FD) (DC)|(dc) (cA) AF|[M:4/4]G/A/B/d/ (gf) (fe)(ec)|
[M:3/4](dc) (cA) A(F|GF) FD DC|(3BAG (BD) (GF)|(FD) (DC) D2:|
(3BAG (Bd) (gf)|(3cBA (cd) cA|(3BAG (Bd) gf|(ef) (ga) fd|
(3BAG (Bd) gf|(3cBA (cd) cA|(3BAG (Bd) gf|[M:4/4](ef) (ga) bc'd'2||

